X:12
T: Goodnight Irene
M:3/4
L:1/4
K:D clef=treble 
"D"D3 | "E"E2 D | "A"C2 B, | A,3 | "Em"E3 | "A"F2 E | "D"D3 | "A" z z D | 
"D"F2 F | "D7"E2 D | "G"E2 D | "E" C2 B, | "A"A, E2 | "A7" F2 E | "D"D3 ||
"A" zz A, | "D" D D D | "E" E E D | "A"C E2 | z3 | "Em" E E E | "A"F F E | "D"D3 | 
"A"zz D | "D" F F F | "D7" F E D | "G" E/D/ B,2 | "E" z z/ B,/ B,/B,/ | "A"A, A, D/D/ | "A7" F2 E | "D" D3 |]
W:
W:Irene, goodnight
W:Irene, goodnight
W:Goodnight, Irene
W:Goodnight, Irene
W:I'll see you in my dreams
W:
W:Last Saturday night I got married
W:Me and my wife settled down
W:Now, me and my wife are parted
W:I'm gonna take another stroll downtown
W:
W:Irene, goodnight
W:Irene, goodnight
W:Goodnight, Irene
W:Goodnight, Irene
W:I'll see you in my dreams
W:
W:Sometimes I live in the country
W:Sometimes I live in town
W:Sometimes I take a great notion
W:To jump into the river and drown
W:
W:Irene, goodnight
W:Irene, goodnight
W:Goodnight, Irene
W:Goodnight, Irene
W:I'll see you in my dreams
W:
W:Stop ramblin', stop your gamblin'
W:Stop staying out late at night
W:Go home to your wife and family
W:Stay there by your fireside, bright
W:
W:Irene, goodnight
W:Irene, goodnight
W:Goodnight, Irene
W:Goodnight, Irene
W:I'll see you in my dreams
W:
